X:89
T: DEN LIEBSTEN BUHLEN DEN ICH HAN
N: E1119
O: Europa, Mitteleuropa, Deutschland
R: Trink -, Zech - Lied
M: 6/4
L: 1/4
K: F
C | F2FG2G | A2AG2
c | A2FG2E | F3F2
C | F2FG2G | A2AG2
c | A2FG2E | F3F2
A | c2cG2G | A2AG2
G | c2cG2G | A2AG2
c | A2GF2B | A3G3 | F4z

